images/why_3.svg

<?xml version="1.0" encoding="iso-8859-1"?>
<!-- Generator: Adobe Illustrator 19.0.0, SVG Export Plug-In . SVG Version: 6.00 Build 0)  -->
<svg version="1.1" id="Capa_1" xmlns="http://www.w3.org/2000/svg" xmlns:xlink="http://www.w3.org/1999/xlink" x="0px" y="0px"
	 viewBox="0 0 512 512" style="enable-background:new 0 0 512 512;" xml:space="preserve">
<g>
	<g>
		<path d="M166.526,247.467v17.067c0,9.412-7.654,17.067-17.067,17.067h-25.6c-9.412,0-17.067-7.654-17.067-17.067v-128
			c0-9.412,7.654-17.067,17.067-17.067h25.6c7.006,0,13.295,4.292,15.855,10.761l1.314,7.74l16.828-2.859l-1.451-8.533
			c-0.085-0.486-0.205-0.956-0.367-1.417c-4.804-13.619-17.741-22.758-32.179-22.758h-0.009h-25.6
			c-18.825,0-34.133,15.309-34.133,34.133v128c0,18.825,15.309,34.133,34.133,34.133h25.6c18.825,0,34.133-15.309,34.142-34.133
			v-17.067H166.526z"/>
	</g>
</g>
<g>
	<g>
		<path d="M136.651,25.6c-25.882,0-46.933,21.052-46.933,46.933s21.052,46.933,46.933,46.933s46.933-21.052,46.933-46.933
			S162.533,25.6,136.651,25.6z M136.651,102.4c-16.469,0-29.867-13.397-29.867-29.867c0-16.469,13.397-29.867,29.867-29.867
			c16.469,0,29.867,13.397,29.867,29.867C166.518,89.003,153.12,102.4,136.651,102.4z"/>
	</g>
</g>
<g>
	<g>
		<path d="M98.251,179.2H79.478c-13.175,0-23.893,10.718-23.893,23.893v37.547c0,13.175,10.718,23.893,23.893,23.893h18.773
			c4.71,0,8.533-3.814,8.533-8.533v-68.267C106.784,183.023,102.961,179.2,98.251,179.2z M89.718,247.467h-10.24
			c-3.763,0-6.827-3.063-6.827-6.827v-37.547c0-3.763,3.063-6.827,6.827-6.827h10.24V247.467z"/>
	</g>
</g>
<g>
	<g>
		<path d="M243.318,102.4h-34.133v17.067h34.133c14.114,0,25.6,11.486,25.6,25.6v145.067h-85.333V230.4h-17.067v68.267
			c0,4.719,3.823,8.533,8.533,8.533h102.4c4.719,0,8.533-3.814,8.533-8.533v-153.6C285.984,121.54,266.844,102.4,243.318,102.4z"/>
	</g>
</g>
<g>
	<g>
		<path d="M276.052,31.889l-16.469,4.489c0.555,2.031,0.828,4.122,0.811,6.289V76.8c0,14.114-11.486,25.6-25.6,25.6
			c-14.114,0-25.6-11.486-25.6-25.6V42.59c-0.017-2.108,0.256-4.19,0.802-6.204l-16.461-4.514
			c-0.973,3.533-1.451,7.194-1.417,10.795V76.8c0,23.526,19.14,42.667,42.667,42.667c23.526,0,42.667-19.14,42.675-42.667V42.743
			C277.494,39.083,277.016,35.43,276.052,31.889z"/>
	</g>
</g>
<g>
	<g>
		<path d="M285.984,0h-59.733c-18.825,0-34.133,15.309-34.133,34.133v34.133c0,3.447,2.082,6.562,5.265,7.885
			c1.058,0.435,2.167,0.648,3.268,0.648c2.219,0,4.403-0.87,6.033-2.5l31.633-31.633h22.067c18.825,0,34.133-15.309,34.133-34.133
			C294.518,3.823,290.703,0,285.984,0z M260.384,25.6h-25.6c-2.261,0-4.429,0.896-6.033,2.5l-19.567,19.567V34.133
			c0-9.412,7.654-17.067,17.067-17.067h48.905C272.212,22.161,266.691,25.6,260.384,25.6z"/>
	</g>
</g>
<g>
	<g>
		<path d="M361.88,448.444l-76.8-153.6l-15.266,7.637l72.986,145.963l-19.243,9.617l-68.105-120.747
			c-4.241-7.953-12.493-12.954-21.606-13.047c-13.602,0-24.661,11.059-24.661,24.661v37.837
			c-0.06,10.308-6.238,19.524-15.761,23.501L119.38,441.31l-9.506-19.004l68.642-30.507c3.081-1.374,5.069-4.42,5.069-7.799v-85.333
			h-17.067v79.795l-71.731,31.872c-2.125,0.947-3.78,2.722-4.565,4.915c-0.785,2.193-0.64,4.617,0.401,6.699l17.067,34.133
			c2.005,4.019,6.767,5.777,10.931,4.053l81.391-34.125c15.846-6.613,26.146-21.973,26.24-39.194v-37.888
			c0-4.19,3.405-7.595,7.509-7.595c2.79,0.026,5.325,1.562,6.733,4.19l72.192,128c1.57,2.765,4.446,4.343,7.441,4.343
			c1.289,0,2.586-0.29,3.806-0.905l34.133-17.067C362.281,457.788,363.988,452.659,361.88,448.444z"/>
	</g>
</g>
<g>
	<g>
		<path d="M136.165,474.991l-30.293-60.672c-1.007-2.022-2.782-3.567-4.932-4.284c-2.15-0.734-4.497-0.555-6.519,0.461
			l-34.133,17.067c-2.022,1.015-3.558,2.79-4.275,4.932c-0.717,2.15-0.546,4.506,0.469,6.528l29.44,58.778
			C90.281,506.556,99.053,512,108.832,512h4.437c9.779,0,18.569-5.453,22.903-14.216
			C139.723,490.65,139.723,482.133,136.165,474.991z M120.907,490.197c-1.451,2.918-4.378,4.736-7.637,4.736h-4.437
			c-3.251,0-6.178-1.818-7.629-4.736c0-0.009-0.008-0.017-0.008-0.034l-25.617-51.149l18.859-9.438l26.47,53.026
			C122.093,484.983,122.093,487.817,120.907,490.197z"/>
	</g>
</g>
<g>
	<g>
		<path d="M404.538,448.427c-6.827-13.577-23.432-19.123-37.043-12.331l-51.2,25.6c-4.215,2.108-5.922,7.236-3.814,11.452
			l17.067,34.133c1.502,2.995,4.514,4.719,7.646,4.719c1.289,0,2.586-0.29,3.806-0.905l51.2-25.6c0,0,0.009-0.009,0.017-0.009
			C405.784,478.669,411.322,462.063,404.538,448.427z M384.561,470.229l-43.563,21.786l-9.429-18.867l43.546-21.777
			c5.197-2.594,11.563-0.469,14.157,4.693C391.857,461.261,389.741,467.61,384.561,470.229z"/>
	</g>
</g>
<g>
	<g>
		<path d="M136.651,59.733c-7.057,0-12.8,5.743-12.8,12.8s5.743,12.8,12.8,12.8s12.8-5.743,12.8-12.8S143.708,59.733,136.651,59.733
			z M136.651,76.8c-2.355,0-4.267-1.911-4.267-4.267c0-2.355,1.911-4.267,4.267-4.267c2.355,0,4.267,1.911,4.267,4.267
			C140.918,74.889,139.006,76.8,136.651,76.8z"/>
	</g>
</g>
<g>
	<g>
		<path d="M401.449,159.224c-0.87-1.152-1.818-2.236-2.833-3.251c-5.589-5.555-12.988-8.602-20.864-8.602c-0.034,0-0.068,0-0.111,0
			c-7.902,0.026-15.334,3.132-20.881,8.721l-36.062,36.062l-36.685-44.023l-13.116,10.923l42.667,51.2
			c1.544,1.843,3.78,2.953,6.178,3.063c2.381,0.094,4.727-0.794,6.417-2.492l42.692-42.684c2.355-2.372,5.495-3.695,8.858-3.703
			c0.008,0,0.026,0,0.043,0c3.328,0,6.477,1.289,8.832,3.635c0.435,0.435,0.853,0.905,1.212,1.391
			c3.738,5.001,3.243,12.092-1.169,16.503l-42.197,42.197c-6.758,6.844-16.137,10.769-25.779,10.769c-0.034,0-0.026,0-0.102,0
			c-12.194,0-23.484-6.067-30.285-16.307l-3.755-5.547l-14.131,9.574l3.712,5.47C283.996,247.083,300.602,256,318.522,256
			c0.085,0,0.094,0,0.137,0c14.165,0,27.981-5.777,37.88-15.812l42.155-42.155C409.061,187.657,410.247,170.974,401.449,159.224z"/>
	</g>
</g>
<g>
	<g>
		<path d="M259.07,233.626c-1.596-7.791-6.127-14.498-12.484-18.697l-47.582-34.219l38.511-23.509
			c0.102-0.051,0.196-0.119,0.29-0.179c0.529-0.35,1.041-0.717,1.562-1.118c6.289-4.838,10.308-11.836,11.332-19.703
			c1.016-7.868-1.084-15.659-5.845-21.845c-9.472-12.706-27.238-15.753-40.192-7.083l-62.848,39.219
			c-11.273,7.518-17.988,20.105-17.963,33.621c-0.017,13.56,6.69,26.138,17.775,33.528l71.697,50.731
			c5.077,3.405,10.837,5.035,16.538,5.035c9.097,0,18.048-4.156,23.859-11.964c0.367-0.486,0.708-0.964,1.015-1.434
			C259.121,249.37,260.666,241.417,259.07,233.626z M240.067,247.228c-4.045,5.427-11.631,6.733-17.075,3.089l-71.706-50.739
			c-6.502-4.344-10.385-11.597-10.368-19.456c-0.017-7.825,3.857-15.078,10.146-19.285l62.865-39.228
			c2.159-1.442,4.608-2.142,7.04-2.142c3.9,0,7.757,1.801,10.291,5.205c2.057,2.671,2.953,5.99,2.517,9.336
			c-0.435,3.336-2.142,6.315-4.796,8.354l-49.843,30.49c-2.449,1.493-3.977,4.105-4.087,6.963c-0.102,2.859,1.229,5.581,3.55,7.253
			l58.308,41.924c2.833,1.869,4.77,4.736,5.453,8.064C243.036,240.384,242.379,243.772,240.067,247.228z"/>
	</g>
</g>
<g>
	<g>
		
			<rect x="195.137" y="163.949" transform="matrix(0.4834 -0.8754 0.8754 0.4834 -36.1333 283.7344)" width="54.392" height="17.067"/>
	</g>
</g>
<g>
	<g>
		
			<rect x="164.493" y="247.474" transform="matrix(0.4472 -0.8944 0.8944 0.4472 -127.5029 305.7093)" width="38.16" height="17.066"/>
	</g>
</g>
<g>
	<g>
		<rect x="98.251" y="247.467" width="76.8" height="17.067"/>
	</g>
</g>
<g>
	<g>
		
			<rect x="396.923" y="131.639" transform="matrix(0.974 -0.2265 0.2265 0.974 -61.9461 100.1539)" width="17.058" height="376.743"/>
	</g>
</g>
<g>
	<g>
		<rect x="132.384" y="102.4" width="93.867" height="17.067"/>
	</g>
</g>
<g>
</g>
<g>
</g>
<g>
</g>
<g>
</g>
<g>
</g>
<g>
</g>
<g>
</g>
<g>
</g>
<g>
</g>
<g>
</g>
<g>
</g>
<g>
</g>
<g>
</g>
<g>
</g>
<g>
</g>
</svg>

<svg width="512" height="512" viewBox="0 0 512 512" fill="none" xmlns="http://www.w3.org/2000/svg">
<g clip-path="url(#clip0_75_161)">
<path d="M166.526 247.467V264.534C166.526 273.946 158.872 281.601 149.459 281.601H123.859C114.447 281.601 106.792 273.947 106.792 264.534V136.534C106.792 127.122 114.446 119.467 123.859 119.467H149.459C156.465 119.467 162.754 123.759 165.314 130.228L166.628 137.968L183.456 135.109L182.005 126.576C181.92 126.09 181.8 125.62 181.638 125.159C176.834 111.54 163.897 102.401 149.459 102.401H149.45H123.85C105.025 102.401 89.717 117.71 89.717 136.534V264.534C89.717 283.359 105.026 298.667 123.85 298.667H149.45C168.275 298.667 183.583 283.358 183.592 264.534V247.467H166.526V247.467Z" fill="#783178"/>
<path d="M136.651 25.6001C110.769 25.6001 89.718 46.6521 89.718 72.5331C89.718 98.4141 110.77 119.466 136.651 119.466C162.532 119.466 183.584 98.4141 183.584 72.5331C183.584 46.6521 162.533 25.6001 136.651 25.6001ZM136.651 102.4C120.182 102.4 106.784 89.0031 106.784 72.5331C106.784 56.0641 120.181 42.6661 136.651 42.6661C153.12 42.6661 166.518 56.0631 166.518 72.5331C166.518 89.0031 153.12 102.4 136.651 102.4Z" fill="#783178"/>
<path d="M98.251 179.2H79.478C66.303 179.2 55.585 189.918 55.585 203.093V240.64C55.585 253.815 66.303 264.533 79.478 264.533H98.251C102.961 264.533 106.784 260.719 106.784 256V187.733C106.784 183.023 102.961 179.2 98.251 179.2ZM89.718 247.467H79.478C75.715 247.467 72.651 244.404 72.651 240.64V203.093C72.651 199.33 75.714 196.266 79.478 196.266H89.718V247.467Z" fill="#783178"/>
<path d="M243.318 102.4H209.185V119.467H243.318C257.432 119.467 268.918 130.953 268.918 145.067V290.134H183.585V230.4H166.518V298.667C166.518 303.386 170.341 307.2 175.051 307.2H277.451C282.17 307.2 285.984 303.386 285.984 298.667V145.067C285.984 121.54 266.844 102.4 243.318 102.4Z" fill="#783178"/>
<path d="M276.052 31.8891L259.583 36.3781C260.138 38.4091 260.411 40.5001 260.394 42.6671V76.8001C260.394 90.9141 248.908 102.4 234.794 102.4C220.68 102.4 209.194 90.9141 209.194 76.8001V42.5901C209.177 40.4821 209.45 38.4001 209.996 36.3861L193.535 31.8721C192.562 35.4051 192.084 39.0661 192.118 42.6671V76.8001C192.118 100.326 211.258 119.467 234.785 119.467C258.311 119.467 277.452 100.327 277.46 76.8001V42.7431C277.494 39.0831 277.016 35.4301 276.052 31.8891Z" fill="#783178"/>
<path d="M285.984 0H226.251C207.426 0 192.118 15.309 192.118 34.133V68.266C192.118 71.713 194.2 74.828 197.383 76.151C198.441 76.586 199.55 76.799 200.651 76.799C202.87 76.799 205.054 75.929 206.684 74.299L238.317 42.666H260.384C279.209 42.666 294.517 27.357 294.517 8.533C294.518 3.823 290.703 0 285.984 0ZM260.384 25.6H234.784C232.523 25.6 230.355 26.496 228.751 28.1L209.184 47.667V34.133C209.184 24.721 216.838 17.066 226.251 17.066H275.156C272.212 22.161 266.691 25.6 260.384 25.6Z" fill="#783178"/>
<path d="M361.88 448.444L285.08 294.844L269.814 302.481L342.8 448.444L323.557 458.061L255.452 337.314C251.211 329.361 242.959 324.36 233.846 324.267C220.244 324.267 209.185 335.326 209.185 348.928V386.765C209.125 397.073 202.947 406.289 193.424 410.266L119.38 441.31L109.874 422.306L178.516 391.799C181.597 390.425 183.585 387.379 183.585 384V298.667H166.518V378.462L94.787 410.334C92.662 411.281 91.007 413.056 90.222 415.249C89.437 417.442 89.582 419.866 90.623 421.948L107.69 456.081C109.695 460.1 114.457 461.858 118.621 460.134L200.012 426.009C215.858 419.396 226.158 404.036 226.252 386.815V348.927C226.252 344.737 229.657 341.332 233.761 341.332C236.551 341.358 239.086 342.894 240.494 345.522L312.686 473.522C314.256 476.287 317.132 477.865 320.127 477.865C321.416 477.865 322.713 477.575 323.933 476.96L358.066 459.893C362.281 457.788 363.988 452.659 361.88 448.444Z" fill="#783178"/>
<path d="M136.165 474.991L105.872 414.319C104.865 412.297 103.09 410.752 100.94 410.035C98.79 409.301 96.443 409.48 94.421 410.496L60.288 427.563C58.266 428.578 56.73 430.353 56.013 432.495C55.296 434.645 55.467 437.001 56.482 439.023L85.922 497.801C90.281 506.556 99.053 512 108.832 512H113.269C123.048 512 131.838 506.547 136.172 497.784C139.723 490.65 139.723 482.133 136.165 474.991ZM120.907 490.197C119.456 493.115 116.529 494.933 113.27 494.933H108.833C105.582 494.933 102.655 493.115 101.204 490.197C101.204 490.188 101.196 490.18 101.196 490.163L75.579 439.014L94.438 429.576L120.908 482.602C122.093 484.983 122.093 487.817 120.907 490.197Z" fill="#783178"/>
<path d="M404.538 448.427C397.711 434.85 381.106 429.304 367.495 436.096L316.295 461.696C312.08 463.804 310.373 468.932 312.481 473.148L329.548 507.281C331.05 510.276 334.062 512 337.194 512C338.483 512 339.78 511.71 341 511.095L392.2 485.495C392.2 485.495 392.209 485.486 392.217 485.486C405.784 478.669 411.322 462.063 404.538 448.427ZM384.561 470.229L340.998 492.015L331.569 473.148L375.115 451.371C380.312 448.777 386.678 450.902 389.272 456.064C391.857 461.261 389.741 467.61 384.561 470.229Z" fill="#783178"/>
<path d="M136.651 59.7329C129.594 59.7329 123.851 65.4759 123.851 72.5329C123.851 79.5899 129.594 85.3329 136.651 85.3329C143.708 85.3329 149.451 79.5899 149.451 72.5329C149.451 65.4759 143.708 59.7329 136.651 59.7329ZM136.651 76.7999C134.296 76.7999 132.384 74.8889 132.384 72.5329C132.384 70.1779 134.295 68.2659 136.651 68.2659C139.006 68.2659 140.918 70.1769 140.918 72.5329C140.918 74.8889 139.006 76.7999 136.651 76.7999Z" fill="#783178"/>
<path d="M401.449 159.224C400.579 158.072 399.631 156.988 398.616 155.973C393.027 150.418 385.628 147.371 377.752 147.371C377.718 147.371 377.684 147.371 377.641 147.371C369.739 147.397 362.307 150.503 356.76 156.092L320.698 192.154L284.013 148.131L270.897 159.054L313.564 210.254C315.108 212.097 317.344 213.207 319.742 213.317C322.123 213.411 324.469 212.523 326.159 210.825L368.851 168.141C371.206 165.769 374.346 164.446 377.709 164.438C377.717 164.438 377.735 164.438 377.752 164.438C381.08 164.438 384.229 165.727 386.584 168.073C387.019 168.508 387.437 168.978 387.796 169.464C391.534 174.465 391.039 181.556 386.627 185.967L344.43 228.164C337.672 235.008 328.293 238.933 318.651 238.933C318.617 238.933 318.625 238.933 318.549 238.933C306.355 238.933 295.065 232.866 288.264 222.626L284.509 217.079L270.378 226.653L274.09 232.123C283.996 247.083 300.602 256 318.522 256C318.607 256 318.616 256 318.659 256C332.824 256 346.64 250.223 356.539 240.188L398.694 198.033C409.061 187.657 410.247 170.974 401.449 159.224Z" fill="#783178"/>
<path d="M259.07 233.626C257.474 225.835 252.943 219.128 246.586 214.929L199.004 180.71L237.515 157.201C237.617 157.15 237.711 157.082 237.805 157.022C238.334 156.672 238.846 156.305 239.367 155.904C245.656 151.066 249.675 144.068 250.699 136.201C251.715 128.333 249.615 120.542 244.854 114.356C235.382 101.65 217.616 98.6032 204.662 107.273L141.814 146.492C130.541 154.01 123.826 166.597 123.851 180.113C123.834 193.673 130.541 206.251 141.626 213.641L213.323 264.372C218.4 267.777 224.16 269.407 229.861 269.407C238.958 269.407 247.909 265.251 253.72 257.443C254.087 256.957 254.428 256.479 254.735 256.009C259.121 249.37 260.666 241.417 259.07 233.626ZM240.067 247.228C236.022 252.655 228.436 253.961 222.992 250.317L151.286 199.578C144.784 195.234 140.901 187.981 140.918 180.122C140.901 172.297 144.775 165.044 151.064 160.837L213.929 121.609C216.088 120.167 218.537 119.467 220.969 119.467C224.869 119.467 228.726 121.268 231.26 124.672C233.317 127.343 234.213 130.662 233.777 134.008C233.342 137.344 231.635 140.323 228.981 142.362L179.138 172.852C176.689 174.345 175.161 176.957 175.051 179.815C174.949 182.674 176.28 185.396 178.601 187.068L236.909 228.992C239.742 230.861 241.679 233.728 242.362 237.056C243.036 240.384 242.379 243.772 240.067 247.228Z" fill="#783178"/>
<path d="M228.01 144.55L201.717 192.165L216.657 200.415L242.95 152.8L228.01 144.55Z" fill="#783178"/>
<path d="M184.464 235.127L167.399 269.257L182.663 276.889L199.728 242.759L184.464 235.127Z" fill="#783178"/>
<path d="M175.051 247.467H98.251V264.534H175.051V247.467Z" fill="#783178"/>
<path d="M371.088 134.604L354.473 138.467L439.805 505.415L456.42 501.551L371.088 134.604Z" fill="#783178"/>
<path d="M226.251 102.4H132.384V119.467H226.251V102.4Z" fill="#783178"/>
</g>
<defs>
<clipPath id="clip0_75_161">
<rect width="512" height="512" fill="white"/>
</clipPath>
</defs>
</svg>
